X:1
T:Prelude
T:Prelude
T:Op. 28 No. 8
T:Frédéric Chopin 
C:Frédéric Chopin
%%score { ( 1 2 ) | 3 }
L:1/8
Q:1/4=90
M:4/4
K:A
V:1 treble nm="鋼琴" snm="Pno."
V:2 treble 
V:3 bass 
V:1
"^Molto agitato"!p! (C/4c/4G/4B/4A/4F/4D/4d/4 C/4c/4G/4B/4A/4G/4F/4f/4 F/4f/4^A/4c/4B/4G/4^E/4^e/4 =A/4a/4^B/4d/4c/4=B/4G/4g/4) | %1
 (C/4c/4G/4B/4A/4F/4D/4d/4 C/4c/4G/4B/4A/4G/4F/4f/4 F/4f/4^A/4c/4B/4G/4!<(!^E/4^e/4 =A/4a/4^B/4d/4c/4=B/4G/4g/4)!<)! | %2
!f! (c/4c'/4g/4b/4a/4f/4^d/4^d'/4 c/4c'/4^e/4g/4f/4d/4^B/4^b/4 B/4=b/4f/4a/4=g/4=e/4c/4c'/4 =B/4b/4^d/4f/4e/4c/4^A/4^a/4) | %3
 (=A/4=a/4=d/4=f/4_e/4=c/4B/4b/4!>(! A/4a/4^c/4=e/4d/4B/4G/4g/4 F/4^f/4^A/4c/4B/4G/4^E/4^e/4!>)! D/4d/4^^F/4=A/4G/4E/4C/4c/4) | %4
!p! (C/4c/4G/4B/4A/4F/4D/4d/4 C/4c/4G/4B/4A/4G/4F/4f/4 F/4f/4^A/4c/4B/4G/4^E/4^e/4 =A/4a/4^B/4d/4c/4=B/4G/4g/4) | %5
 (C/4c/4G/4B/4A/4F/4D/4d/4 C/4c/4G/4B/4A/4G/4F/4a/4!<(! A/4a/4c/4e/4d/4B/4G/4g/4 c/4c'/4^d/4f/4e/4=d/4B/4b/4)!<)! | %6
!f! (e/4e'/4b/4d'/4=c'/4a/4f/4f'/4 e/4e'/4g/4b/4a/4f/4^d/4^d'/4) (=d/4=d'/4=g/4_b/4_a/4=f/4e/4e'/4 d/4d'/4^f/4=a/4g/4e/4^c/4^c'/4) | %7
 (=c/4=c'/4=f/4_a/4_g/4_e/4d/4d'/4!>(! c/4c'/4=e/4=g/4=f/4d/4B/4b/4) (_c/4_c'/4_e/4_g/4_f/4_d/4_B/4_b/4 B/4b/4e/4g/4f/4d/4B/4b/4)!>)! | %8
!p! (_B/4_b/4=e/4=g/4=f/4=d/4A/4a/4 __B/4__b/4_d/4_f/4__e/4_c/4_A/4_a/4"_poco a poco cresc." A/4a/4^c/4_e/4=d/4=c/4=G/4=g/4 G/4g/4d/4=f/4_e/4d/4=c/4=c'/4) | %9
 (=c/4=c'/4^f/4_a/4=g/4_e/4=B/4=b/4 _c/4_c'/4_e/4f/4=e/4_d/4_B/4_b/4 B/4b/4^d/4=f/4=e/4^c/4=A/4=a/4 A/4a/4e/4=g/4=f/4e/4=d/4d'/4) | %10
 (d/4d'/4=e/4=g/4=f/4_e/4=c/4=c'/4 c/4c'/4=e/4g/4f/4d/4_B/4_b/4) (B/4b/4^c/4_e/4d/4=c/4A/4a/4 A/4a/4^c/4_e/4d/4B/4=G/4=g/4) | %11
 (=G/4=g/4A/4=c/4_B/4_A/4=F/4=f/4 =E/4=e/4=A/4c/4B/4_A/4F/4f/4 F/4f/4=A/4_c/4B/4_A/4F/4f/4 _G/4_g/4d/4=f/4_e/4B/4G/4g/4) | %12
!f! (_G/4_g/4=G/4_B/4_A/4_G/4_F/4_f/4 F/4f/4=G/4B/4A/4_F/4_A,/4_A/4 _C/4_c/4=F/4A/4_G/4_E/4C/4c/4 _B,/4B/4F/4A/4G/4E/4C/4c/4) | %13
 (=C/4=c/4=F/4_A/4_G/4_F/4C/4c/4!<(! _D/4_d/4=F/4A/4G/4_F/4=D/4=d/4 D/4d/4=F/4A/4G/4_F/4D/4d/4 _E/4_e/4_B/4_d/4_c/4G/4E/4!<)!e/4) | %14
!ff! (_E/4_e/4_A/4_d/4_c/4A/4E/4e/4 =D/4=d/4A/4_d/4c/4A/4E/4e/4 =F/4=f/4_B/4_e/4=d/4B/4F/4f/4 _G/4_g/4B/4e/4d/4B/4F/4f/4) | %15
 (_E/4_e/4_A/4_d/4_c/4A/4E/4e/4 =D/4=d/4A/4_d/4c/4A/4E/4e/4 =F/4=f/4_B/4_e/4=d/4B/4F/4f/4!>(! B/4_b/4=e/4_g/4f/4d/4B/4!>)!b/4) | %16
!p! (_E/4_e/4_A/4_d/4_c/4A/4E/4e/4 =D/4=d/4A/4_d/4c/4A/4E/4e/4 =F/4=f/4_B/4_e/4=d/4B/4F/4f/4 _G/4_g/4B/4e/4d/4B/4F/4f/4) | %17
 (_E/4_e/4_A/4_d/4_c/4A/4E/4e/4 =D/4=d/4A/4_d/4c/4A/4E/4e/4"^poco riten."[Q:1/4=86] =F/4=f/4[Q:1/4=84]_B/4_e/4[Q:1/4=78]=d/4!<(!B/4[Q:1/4=74]F/4f/4!<)!!mf![Q:1/4=64]!>(! ^E/4^e/4[Q:1/4=56]^B/4=d/4[Q:1/4=44]^c/4=B/4!>)![Q:1/4=36]C/4c/4) | %18
[Q:1/4=90]"^molto agitato e stretto"!p! (C/4c/4G/4B/4A/4F/4D/4d/4 C/4c/4G/4B/4A/4G/4F/4f/4 F/4f/4^A/4c/4B/4G/4^E/4^e/4 =A/4a/4^B/4d/4c/4=B/4G/4g/4) | %19
 (C/4c/4G/4B/4A/4F/4D/4d/4 C/4c/4"_cresc."G/4B/4A/4G/4F/4a/4 A/4a/4c/4e/4d/4B/4G/4g/4 c/4c'/4^d/4f/4e/4=d/4B/4b/4) | %20
 (B/4b/4^d/4f/4e/4c/4^A/4^a/4 =d/4=d'/4^e/4=g/4f/4=e/4c/4c'/4) (c/4c'/4^e/4^g/4f/4^d/4^B/4^b/4 ^e/4^e'/4g/4=b/4a/4g/4f/4f'/4) | %21
!ff! (^g/4^g'/4d'/4=f'/4_e'/4=c'/4a/4a'/4) (g/4g'/4d'/4f'/4e'/4c'/4a/4a'/4) (g/4g'/4^c'/4=e'/4d'/4=c'/4a/4a'/4) (g/4g'/4^c'/4e'/4d'/4=c'/4a/4a'/4) | %22
!>(! (a/4a'/4^e'/4g'/4f'/4c'/4a/4a'/4 g/4g'/4^d'/4f'/4=e'/4c'/4g/4g'/4 e/4e'/4b/4=d'/4c'/4a/4e/4e'/4 c/4c'/4g/4b/4a/4f/4c/4c'/4)!>)! | %23
!p! (G/4g/4^d/4f/4e/4c/4G/4g/4 F/4f/4c/4e/4=d/4A/4F/4f/4 E/4e/4B/4d/4c/4A/4E/4e/4 D/4d/4A/4c/4B/4=G/4D/4d/4) | %24
 (C/4c/4G/4B/4A/4F/4C/4c/4 C/4c/4G/4B/4A/4F/4C/4c/4 C/4c/4G/4B/4A/4F/4C/4c/4 C/4c/4G/4B/4A/4F/4C/4c/4) | %25
 (C/4c/4^^F/4B/4A/4^F/4C/4c/4 C/4c/4^^F/4B/4A/4^F/4C/4c/4 C/4c/4^^F/4B/4A/4^E/4C/4c/4 C/4c/4F/4B/4A/4E/4C/4c/4) | %26
!p! (C/4c/4G/4B/4A/4F/4C/4c/4 C/4c/4G/4B/4A/4F/4C/4c/4 C/4c/4G/4B/4A/4F/4C/4c/4 C/4c/4G/4B/4A/4F/4C/4c/4) | %27
 (D/4d/4^A/4c/4B/4F/4D/4d/4!<(! D/4d/4A/4c/4B/4F/4D/4d/4 D/4d/4A/4c/4B/4F/4!<)!D/4!mf!d/4!>(! F/4f/4^A/4c/4B/4F/4!>)!D/4d/4) | %28
!pp! (C/4c/4G/4B/4^A/4F/4C/4c/4 C/4c/4G/4B/4A/4F/4C/4c/4 C/4c/4G/4B/4A/4F/4C/4c/4 C/4c/4G/4B/4A/4F/4C/4c/4) | %29
 (^D/4^d/4^A/4c/4B/4F/4D/4d/4!<(! D/4d/4A/4c/4B/4F/4D/4d/4 D/4d/4A/4c/4B/4F/4!<)!D/4!mf!d/4!>(! F/4f/4A/4c/4B/4F/4!>)!D/4!pp!d/4) | %30
 (C/4c/4G/4B/4^A/4F/4C/4c/4!<(! C/4c/4G/4B/4A/4F/4C/4c/4 C/4c/4G/4B/4A/4F/4C/4c/4 C/4c/4G/4B/4A/4F/4!<)!C/4c/4 | %31
!p![Q:1/4=86] C/4c/4G/4B/4[Q:1/4=82]=A/4F/4C/4c/4[Q:1/4=78]!>(! C/4c/4G/4B/4[Q:1/4=74]=A/4F/4C/4c/4[Q:1/4=70] C/4c/4G/4B/4[Q:1/4=66]=A/4F/4[Q:1/4=62]C/4c/4[Q:1/4=58] C/4c/4G/4B/4[Q:1/4=54]=A/4F/4C/4[Q:1/4=10]c/4)!>)! | %32
[Q:1/4=52]"^lento"!p! ([CEc]4 [D=GB]2 [B,C^E]2) |{/!fermata!^E} !fermata![CF]8 |] %34
V:2
 C>D C>F F>^E =A>G | C>D C>F F>^E =A>G | c>^d c>^B =B>c B>^A | =A>B A>G ^F>^E D>C | %4
 C>D C>F F>^E =A>G | C>D C>F A>G c>B | e>f e>^d =d>e d>^c | =c>d c>B _c>_B B>B | %8
 _B>A __B>_A A>=G G>=c | =c>=B _c>_B B>=A A>=d | d>=c c>_B B>A A>=G | =G>=F =E>F F>F _G>G | %12
 _G>_F F>_A, _C>C _B,>C | =C>C _D>=D D>D _E>E | _E>E =D>E =F>F _G>F | _E>E =D>E =F>F _B>B | %16
 _E>E =D>E =F>F _G>F | _E>E =D>E =F>F ^E>C | C>D C>F F>^E =A>G | C>D C>F A>G c>B | %20
 B>^A =d>c c>^B ^e>f | ^g>a g>a g>a g>a | a>a g>g e>e c>c | G>G F>F E>E D>D | C>C C>C C>C C>C | %25
 C>C C>C C>C C>C | C>C C>C C>C C>C | D>D D>D D>D F>D | C>C C>C C>C C>C | ^D>D D>D D>D F>D | %30
 C>C C>C C>C C>C | C>C C>C C>C C>C | x8 | x8 |] %34
V:3
!ped! (3(A,/(C,/F,/)F,,)!ped-up!!ped! (3(A,/(C,/F,/)F,,)!ped-up!!ped! (3(D/G,/B,/D,)!ped-up!!ped! (3(C/^E,/B,/C,)!ped-up! | %1
!ped! (3(A,/(C,/F,/)F,,)!ped-up!!ped! (3(A,/(C,/F,/)F,,)!ped-up!!ped! (3(D/G,/B,/D,)!ped-up!!ped! (3(C/^E,/B,/C,)!ped-up! | %2
!ped! (3(A/^D/F/A,)!ped-up!!ped! (3(G/D/F/G,)!ped-up!!ped! (3(=G/C/E/=G,)!ped-up!!ped! (3(F/C/E/F,)!ped-up! | %3
!ped! (3(=F/=C/_E/=F,)!ped-up!!ped! (3(F/B,/D/F,)!ped-up!!ped! (3(D/^G,/B,/D,)!ped-up!!ped! (3(B,/C,/^E,/C,,)!ped-up! | %4
!ped! (3(A,/C,/F,/F,,)!ped-up!!ped! (3(A,/C,/F,/F,,)!ped-up!!ped! (3(D/G,/B,/D,)!ped-up!!ped! (3(C/^E,/B,/C,)!ped-up! | %5
!ped! (3(A,/C,/F,/F,,)!ped-up!!ped! (3(A,/C,/F,/F,,)!ped-up!!ped! (3(=F/B,/D/=F,)!ped-up!!ped! (3(E/G,/D/E,)!ped-up! | %6
[K:treble]!ped! (3(=c/F/A/=C)!ped-up!!ped! (3(B/F/A/B,)!ped-up!!ped! (3(_B/=F/_A/_B,)!ped-up!!ped! (3(=A/E/=G/=A,)!ped-up! | %7
!ped! (3(_A/_E/_G/_A,)!ped-up!!ped! (3(=G/C/=E/=G,)!ped-up!!ped! (3(G/_D/_F/G,)!ped-up!!ped! (3(_G/D/F/_G,)!ped-up! | %8
[K:bass]!ped! (3(=F/_B,/D/=F,)!ped-up!!ped! (3(F/=B,/D/F,)!ped-up!!ped! (3(F/=G,/=B,/F,)!ped-up!!ped! (3(_E/G,/=C/F,)!ped-up! | %9
!ped! (3(=G/=C/_E/=F,)!ped-up!!ped! (3(G/_D/=E/F,)!ped-up!!ped! (3(G/A,/^C/F,)!ped-up!!ped! (3(=F/A,/=D/F,)!ped-up! | %10
!ped! (3(=F/A,/_E/=F,)!ped-up!!ped! (3(D/=F,/_B,/_B,,)!ped-up!!ped! (3(D/^F,/=C/D,)!ped-up!!ped! (3(_B,/D,/=G,/=G,,)!ped-up! | %11
!ped! (3(_B,/D,/_A,/_B,,)!ped-up!!ped! (3(B,/D,/A,/B,,)!ped-up!!ped! (3(A,/B,,/D,/_E,,)!ped-up!!ped! (3(_G,/B,,/_E,/E,,)!ped-up! | %12
!ped! (3(_A,/_A,,/_D,/_F,,)!ped-up!!ped! (3(A,/A,,/D,/F,,)!ped-up!!ped! (3(_G,/_C,/_E,/_G,,)!ped-up!!ped! (3(G,/C,/E,/G,,)!ped-up! | %13
!ped! (3(_G,/_B,,/_F,/_G,,)!ped-up!!ped! (3(G,/B,,/F,/G,,)!ped-up!!ped! (3(_F,/_G,,/B,,/_C,,)!ped-up!!ped! (3(_E,/G,,/_C,/C,,)!ped-up! | %14
!ped! (3(_A,/_C,/_E,/=F,,)!ped-up!!ped! (3(A,/C,/E,/F,,)!ped-up!!ped! (3(D/=F,/_B,/_B,,)!ped-up!!ped! (3(D/F,/B,/B,,)!ped-up! | %15
!ped! (3(_A,/_C,/_E,/=F,,)!ped-up!!ped! (3(A,/C,/E,/F,,)!ped-up!!ped! (3(D/=F,/_B,/_B,,)!ped-up!!ped! (3(D/F,/B,/B,,)!ped-up! | %16
!ped! (3(_A,/_C,/_E,/=F,,)!ped-up!!ped! (3(A,/C,/E,/F,,)!ped-up!!ped! (3(D/=F,/_B,/_B,,)!ped-up!!ped! (3(D/F,/B,/B,,)!ped-up! | %17
!ped! (3(_A,/_C,/_E,/=F,,)!ped-up!!ped! (3(A,/C,/E,/F,,)!ped-up!!ped! (3(D/=F,/_B,/_B,,)!ped-up!!ped! (3(=B,/^C,/^E,/G,,)!ped-up! | %18
!ped! (3(A,/C,/F,/F,,)!ped-up!!ped! (3(A,/C,/F,/F,,)!ped-up!!ped! (3(D/G,/B,/D,)!ped-up!!ped! (3(C/^E,/B,/C,)!ped-up! | %19
!ped! (3(A,/C,/F,/F,,)!ped-up!!ped! (3(A,/C,/F,/F,,)!ped-up!!ped! (3(=F/B,/D/=F,)!ped-up!!ped! (3(E/G,/D/E,)!ped-up! | %20
!ped! (3(=G/C/E/=G,)!ped-up!!ped! (3(F/^A,/E/F,)!ped-up![K:treble]!ped! (3(=A/^D/F/=A,)!ped-up!!ped! (3(^B/F/A/^B,)!ped-up! | %21
!ped! (3(f/A/=c/_E) (3(f/A/c/E)!ped-up!!ped! (3(f/A/c/D) (3(f/A/c/D)!ped-up! | %22
!ped! (3(f/A/c/C)!ped-up!!ped! (3(e/G/c/C)!ped-up!!ped! (3(c/E/A/A,)!ped-up!!ped! (3(A/C/F/F,)!ped-up! | %23
[K:bass]!ped! (3(E/G,/C/C,)!ped-up!!ped! (3(D/F,/A,/D,)!ped-up!!ped! (3(C/E,/A,/A,,)!ped-up!!ped! (3(B,/D,/=G,/B,,)!ped-up! | %24
!ped! (3(!>!A,/A,,/C,/C,,) (3(!>!A,/A,,/C,/C,,)!ped-up!!ped! (3(!>!A,/A,,/C,/C,,)!ped-up!!ped! (3(!>!A,/A,,/C,/C,,)!ped-up! | %25
!ped! (3(!>!F,/G,,/C,/C,,) (3(!>!F,/G,,/C,/C,,)!ped-up!!ped! (3(!>!^E,/G,,/C,/C,,) (3(!>!E,/G,,/C,/C,,)!ped-up! | %26
!ped! (3(A,/C,/F,/C,,) (3(A,/C,/F,/C,,) (3(A,/C,/F,/C,,) (3(A,/C,/F,/C,,)!ped-up! | %27
!ped! (3(F,/F,,/B,,/B,,,) (3(F,/F,,/B,,/B,,,) (3(F,/F,,/B,,/B,,,) (3(F,/F,,/B,,/B,,,)!ped-up! | %28
"_una corda"!ped! (3(^A,/C,/F,/F,,) (3(A,/C,/F,/F,,) (3(A,/C,/F,/F,,) (3(A,/C,/F,/F,,)!ped-up! | %29
!ped! (3(F,/F,,/B,,/B,,,) (3(F,/F,,/B,,/B,,,) (3(F,/F,,/B,,/B,,,) (3(F,/F,,/B,,/B,,,)!ped-up! | %30
!ped! (3(^A,/C,/F,/F,,) (3(A,/C,/F,/F,,) (3(A,/C,/F,/F,,) (3(A,/C,/F,/F,,)!ped-up! | %31
!ped! (3(=A,/C,/F,/F,,) (3(=A,/C,/F,/F,,) (3(=A,/C,/F,/F,,) (3(=A,/C,/F,/F,,)!ped-up! | %32
!ped! [A,,E,A,]4!ped-up! [B,,=G,]2 [C,^G,]2 |!ped! !arpeggio!!fermata![F,,C,A,]8!ped-up! |] %34

